X: 19218
T: Isle Of Skye, The
R: reel
M: 4/4
K: Cdorian
d|:BFDF BFDF|ECCB cGGA|BFDF BFDF|1 ECFE DB,B,d:|2 ECFE DB,B,F||
Bdfb fdBd|cBcd cBGc|Bdfb fdBd|cBcdB2Bb|
gfgb fdBd|cBcd cBGg|fBgB aBbB|cBcdB2B||

